X:1
T:Espiègle
T:Espiègle 
T:Swan Lake, Piano Arrangement for 3 hands
T:Hinci
C:Hinci
%%score { 1 | 2 | 3 }
L:1/8
Q:1/4=54
M:4/4
K:E
V:1 treble nm="Piano" snm="Pno."
V:2 bass 
V:3 bass 
V:1
"^Allegro moderato.\n" z (GG/) z/!mf! (B c/) z/ (B/A/) G/ z/ (F/E/) | %1
 .D B2 !tenuto!B!<(! !tenuto!B(Bcd)!<)! |!f!!>(! e3 (B!>)!!mf! c/) z/ (B/A/) G/ z/ (F/E/) | %3
 .D F2 !tenuto!F!<(! !tenuto!F(FG^A)!<)! | %4
!f!!>(! B3!>)!"^un poco affrettando"!mf! (^B .c/) z/[Q:1/4=56]!<(! (D/E/ ^E/) z/[Q:1/4=58] (F/G/ | %5
 A/) z/[Q:1/4=60] (B,/^B,/ C/) z/[Q:1/4=62] (D/E/!<)!!f! F/) z/ (G,/A,/) .^A,/.=B,/.^B,/.C/ | %6
[Q:1/4=61]"^rallent."!>(! (D/[Q:1/4=59]E/)[Q:1/4=57].F/[Q:1/4=55].=G/[Q:1/4=53] .^G/[Q:1/4=51].A/[Q:1/4=49].^A/[Q:1/4=54]!fermata![B,B]/!>)!!mf!"^a tempo" [Cc]/ z/ (B/=A/) G/ z/ (F/E/) | %7
 .D B2 !tenuto!B!<(! !tenuto!B(Bcd)!<)! |!f!!>(! e3 (B!>)!!mf! c/) z/!<(! (B/A/) G/ z/ (F/E/)!<)! | %9
!f! (.Df) z .^e/.f/ (^^f/g/).^B/.c/ (d/=e/).G/.^A/ | %10
[Q:1/4=65] B!p![Q:1/4=80]!<(! .[FAf]/.[FAf]/ .[Gg]/.[Gg]/.[=G^A^a]/.[GAa]/ .[FBb]/.[FBb]/.[cc']/.[cc']/ .[=cdd']/.[cdd']/.[ee']/.[ee']/ | %11
 .[ff']/.[ff']/.[gg']/.[gg']/ .[^a^a']/.[aa']/.[bb']/!<)!.[bb']/!ff! z [Bg]3 | %12
 z4 z!mf! (.[^^Fc^a].[GBb].[^Af]) | %13
 [Bf]!p!!<(! .[FAf]/.[FAf]/ .[Gg]/.[Gg]/.[=G^A^a]/.[GAa]/ .[FBb]/.[FBb]/.[cc']/.[cc']/ .[=cdd']/.[cdd']/.[ee']/.[ee']/ | %14
 .[ff']/.[ff']/.[gg']/.[gg']/ .[^a^a']/.[aa']/.[bb']/!<)!.[bb']/!ff! z [Bg]3 | %15
 z4 z!mf! (.[^^Fc^a].[GBb].[^Af]) | %16
 [Bf][Q:1/4=78]"^poco rall."([ee']/[dd']/)[Q:1/4=76] .[cc']/.[Bb]/[Q:1/4=74].[Aa]/.[Gg]/[Q:1/4=72] ([Gg]/[Ff]/)[Q:1/4=70]([Aa]/[Gg]/)[Q:1/4=68] .[Ff]/.[Ee]/[Q:1/4=66].[Dd]/.[Cc]/ | %17
[Q:1/4=64] ([Cc]/[B,B]/)[Q:1/4=61] z[Q:1/4=58] z[Q:1/4=56]!mf! (!fermata!b[Q:1/4=54] .c')(b/a/) .g (f/e/) | %18
 .d b2 !tenuto!b!<(! !tenuto!b(bc'd')!<)! |!f!!>(! e'3 (b!>)!!mf! .c')(b/a/) .g (f/e/) | %20
!<(! .[dd']([cc']/[Bb]/) .[Aa]([Gg]/[Ff]/ [gg']/)([aa']/[ff']/[dd']/ [Bb]/[Aa]/[Ff]/!<)!!f![Bb]/) | %21
[Q:1/4=65] e[Q:1/4=80]!p!!<(! .[B=db]/.[Bdb]/ .[cc']/.[cc']/.[=c^dd']/.[cdd']/ .[Bee']/.[Bee']/.[ff']/.[ff']/ .[=fgg']/.[fgg']/.[aa']/.[aa']/ | %22
 .[bb']/.[bb']/.[c'c'']/.[c'c'']/ .[d'd'']/.[d'd'']/.[e'e'']/.[e'e'']/!<)!!ff! z [efc']3 | %23
 z4 z!mf! (.[^Bfd'].[cee'].[db]) | %24
 [eb]!p!!<(! .[B=db]/.[Bdb]/ .[cc']/.[cc']/.[=c^dd']/.[cdd']/ .[Bee']/.[Bee']/.[ff']/.[ff']/ .[=fgg']/.[fgg']/.[aa']/.[aa']/ | %25
 .[bb']/.[bb']/.[c'c'']/.[c'c'']/ .[d'd'']/.[d'd'']/.[e'e'']/.[e'e'']/!<)!!ff! z [efc']3 | %26
 z4 z!mf! (.[^Bfd'].[cee'].[db]) | %27
!<(! .[Begb].[Bdab].[Begb].[Bdab] .[Begb].[Bdab].[Begb].[Bdab]!<)! | %28
!f! .[Begb] z[Q:1/4=60] !>![be'g'] z !>!e z !fermata!z2 |] %29
V:2
!mp! .E,, ([E,G,][G,B,]/) z/ z .E,, ([E,G,][G,B,]/) z/ z | %1
 .F,, ([D,A,][A,B,]/) z/ z .D,, ([D,A,][A,B,]/) z/ z | %2
 .E,, ([E,G,][G,B,]/) z/ z .E,, ([E,G,][G,B,]/) z/ z | %3
 .F,, ([D,B,][F,B,]/) z/ z .F,, ([F,^A,][F,C]/) z/ z | .B,, ([D,B,][F,B,]/) z/ z z4 | z8 | %6
 z4!mp! .E,, ([E,G,B,][G,B,E]/) z/ z | .F,, ([D,A,B,][A,B,D]/) z/ z .D,, ([D,A,B,][A,B,F]/) z/ z | %8
 .E,, ([E,G,B,][G,B,E]/) z/ z .E,, ([E,G,B,][G,B,E]/) z/ z | %9
 .F,, ([D,B,][F,B,D]/) z/ z .F,, ([E,^A,][F,A,E]/) z/ z | %10
 [B,,B,] .[D,A,] .[=D,G,].[C,=G,] .[B,,F,].[G,C] .[F,=C].[E,B,] | %11
 .[D,A,].[=D,G,] .[C,=G,].[B,,F,] [E,,E,] [E,B,]3 | z4 z .[D,^^F,].[=D,G,].[C,^A,] | %13
 [B,,B,] .[D,A,] .[=D,G,].[C,=G,] .[B,,F,].[G,C] .[F,=C].[E,B,] | %14
 .[D,A,].[=D,G,] .[C,=G,].[B,,F,] [E,,E,] [E,B,]3 | z4 z .[D,^^F,].[=D,G,].[C,^A,] | %16
 [B,,B,] z z2 [B,,D,F,A,]4 | %17
 z ([D,,D,]/[C,,C,]/) .[B,,,B,,]/.[A,,,A,,]/.G,,/.!fermata!F,,/ .[E,,E,] ([E,G,B,][G,B,E]/) z/ z | %18
 .[F,,F,] ([D,A,B,][A,B,D]/) z/ z .[D,,D,] ([D,A,B,][A,B,F]/) z/ z | %19
 .[E,,E,] ([E,G,B,][G,B,E]/) z/ z .[G,,G,] ([E,G,B,][G,B,E]/) z/ z | %20
 .[A,,A,] ([C,A,C][A,C]/) z/ z .[B,,,B,,] ([F,A,B,][A,B,D]/) z/ z | %21
 [E,B,] .[G,=D] .[=G,C].[F,=C] .[E,B,].[CF] .[B,=F].[A,E] | %22
 .[G,=D].[=G,C].[F,=C].[E,B,] [A,,A,] [A,E]3 | z4 z .[^B,G].[C=G].[DF] | %24
 [E,E] .[G,=D] .[=G,C].[F,=C] .[E,B,].[CF] .[B,=F].[A,E] | %25
 .[G,=D].[=G,C].[F,=C].[E,B,] [A,,A,] [A,E]3 | z4 z .[G,^B,G].[=G,C=G].[F,DF] | %27
 .[E,E].[F,DF].[E,E].[F,DF] .[E,E].[F,DF].[E,E].[F,DF] | .[E,E] z [EGe] z [E,G,] z !fermata!z2 |] %29
V:3
 z8 | z8 | z8 |!mp! B,4 (^A,2 E2) | (D2 D) z z4 | z8 | z2 z2 z2 z[K:treble]!mf!!>(! (g | %7
 a/) z/ (g/f/) .e/ z/ (d/c/) .B!tenuto!B!tenuto!^A!tenuto!=A!>)! | %8
!mp! G/ z/ (E/C/) B, z z2 z!mf! (B | .d/) z/ (c/B/) .F/ z/ (D/B,/) (^A,3 E) | %10
 D .[A,B,]/.[A,B,]/ .[G,^E]/.[G,E]/.[=G,=E]/.[G,E]/ .[F,D]/.[F,D]/.[C^A]/.[CA]/ .[=C=A]/.[CA]/.[B,=GB]/.[B,GB]/ | %11
 .[A,FA]/.[A,FA]/.[G,^EG]/.[G,EG]/ .[=G,=E=G]/.[G,EG]/.[F,DF]/.[F,DF]/ z2!p! (E,/4^G,/4B,/4C/4) (^G/4B/4c/4e/4) | %12
 (g/4e/4c/4B/4) (G/4C/4B,/4G,/4) (E,/4G,/4B,/4C/4) (G/4B/4c/4e/4) g/ z/ z z2 | %13
 D .[A,B,]/.[A,B,]/ .[G,^E]/.[G,E]/.[=G,=E]/.[G,E]/ .[F,D]/.[F,D]/.[C^A]/.[CA]/ .[=C=A]/.[CA]/.[B,=GB]/.[B,GB]/ | %14
 .[A,FA]/.[A,FA]/.[G,^EG]/.[G,EG]/ .[=G,=E=G]/.[G,EG]/.[F,DF]/.[F,DF]/ z2!p! (E,/4^G,/4B,/4C/4) (^G/4B/4c/4e/4) | %15
 (g/4e/4c/4B/4) (G/4C/4B,/4G,/4) (E,/4G,/4B,/4C/4) (G/4B/4c/4e/4) g/ z/ z z2 | z8 | z4 z2 z ([Gg] | %18
 .[Aa])([Gg]/[Ff]/ .[Ee])([Dd]/[Cc]/ ([B,B])[Bb])!tenuto![^A^a]!tenuto![=A=a] | [Gg]3 z z2 z (B | %20
 .f)(e/d/) .c(B/A/) (D4 | %21
 E) .[=DE]/.[DE]/ .[C^A]/.[CA]/.[=C=A]/.[CA]/ .[B,=G]/.[B,G]/.[Fd]/.[Fd]/ .[=F=d]/.[Fd]/.[Ece]/.[Ece]/ | %22
 .[=DB=d]/.[DBd]/.[C^Ac]/.[CAc]/ .[=C=A=c]/.[CAc]/.[B,GB]/.[B,GB]/ z2!p! (A,/4^C/4E/4F/4) (^c/4e/4f/4a/4) | %23
 (c'/4a/4f/4e/4) (c/4F/4E/4C/4) (A,/4C/4E/4F/4) (c/4e/4f/4a/4 c'/) z/ z z2 | %24
 z .[=DE]/.[DE]/ .[C^A]/.[CA]/.[=C=A]/.[CA]/ .[B,=G]/.[B,G]/.[Fd]/.[Fd]/ .[=F=d]/.[Fd]/.[Ece]/.[Ece]/ | %25
 .[=DB=d]/.[DBd]/.[C^Ac]/.[CAc]/ .[=C=A=c]/.[CAc]/.[B,GB]/.[B,GB]/ z2!p! (A,/4^C/4E/4F/4) (^c/4e/4f/4a/4) | %26
 (c'/4a/4f/4e/4) (c/4F/4E/4C/4) (A,/4C/4E/4F/4) (c/4e/4f/4a/4 c'/) z/ z z2 | z8 | %28
 z4 z2 !fermata!z2 |] %29

